X: 11211
T: Dunstanburgh Castle
R: hornpipe
M: 4/4
K: Amajor
|:EF/G/A2 AEAc|BA (3FAF E2E2|ABc2 cAce|cABc B2B2|
cBA2 A2Ac|BAdc defg|afec fedB|edBc A2A2:|
|:cded cdea|edc2 e2e2|cBAB cde2|c2 B4 B2|
cBAB cde2|fgaf afe2|fgag afef|ABc2 A2A2:|

